!!!OTL@@DE: Als ich auf meiner Bleiche
!!!COM: Hiller, Joh. Adam
!!!CDT: 1769
!!!OMD: Gem&auml;chlich
!!!LYR: Weisser, Christian Felix
!!!LDT: 1769
!!!OPR: Aus der kom. Oper. "Die Jagd" (1770)
!!!OCL: Erk, Ludwig
!!!GCO: Deutscher Liederschatz, Band 1
**kern	**kern	**kern
*staff3	*staff2	*staff1
*Ipiano	*Ipiano	*Ivox
*>[A,A,B]	*>[A,A,B]	*>[A,A,B]
*>norep[A,B]	*>norep[A,B]	*>norep[A,B]
*>A	*>A	*>A
*clefF4	*clefG2	*clefG2
*k[f#c#g#]	*k[f#c#g#]	*k[f#c#g#]
*A:	*A:	*A:
*met(C)	*met(C)	*met(C)
*M4/4	*M4/4	*M4/4
*MM120	*MM120	*MM120
4E\	4e/	4e/
=1	=1	=1
2AA/ 2E/	4c#/ 4a/	4a/
.	4e/ 4cc#/	4cc#\
2E\ 2G#\	4e/ 4cc#/	4cc#\
.	4d/ 4b/	4b\
=2	=2	=2
2AA/ 2E/	(4d/ 4b/	4b/
.	4c#/) 4a/	4a/
4AA\ 4A\	4c#/ 4a/	4a/
4C#\ 4A\	4e/ 4a/	4a/
=3	=3	=3
*^	*^	*
2F#/	4D\	4.b/	4f#\	4.b\
.	4C#\	.	4e\	.
.	.	8cc#/	.	8cc#\
*	*	*v	*v	*
4F#/	4BB\	8f#/ 8dd/L	8dd\L
.	.	8d/ 8b/	8b\J
4E/	4E\	8c#/ 8a/	8a/L
.	.	8B/ 8g#/J	8g#/J
*v	*v	*	*
=4	=4	=4
4A\	4c#/ 4a/	4a/
4E\	4r	4r
4AA/	4r	4r
=:|!	=:|!	=:|!
*>B	*>B	*>B
4A\	4e/ 4cc#/	4cc#\
=5	=5	=5
*^	*^	*
4G#/	2E\	4b/	2e\	4b\
4c#/	.	4ee/	.	4ee\
4B/	2E\	4dd#/	2e\	4dd#\
4A/	.	4cc#/	.	4cc#\
=6	=6	=6	=6	=6
(4A/	2E\	(4cc#/	2e\	(4cc#\
4G#/)	.	4b/)	.	4b\)
4G#/	4E\	4b/	4e\	4b\
*	*	*v	*v	*
4ryy	4D#\ 4B\	4f#/ 4a/	4a/
*v	*v	*	*
=7	=7	=7
4E\ 4B\	4.e/ 4.g#/	4.g#/
4AA/	.	.
.	8a/ 8cc#/	8cc#\
4BB/	8g#/ 8b/L	8b/L
*^	*	*
.	.	8f#/ 8a/	8a/J
8B/L	4BB\	8e/ 8g#/	8g#/L
8A/J	.	8d#/ 8f#/J	8f#/J
=8	=8	=8	=8
4E\	4G#/	4e/	4e/
2.ryy	4BB/	4r	4r
.	4EE/	4r	4r
.	4E\	4g#\ 4ee\	4ee\
*v	*v	*	*
=9	=9	=9
*	*^	*
4E\	8ee/L	4g#\	8ee\L
.	8dd#/J	.	8dd#\J
4F#\	4dd#/	4a\	4dd#\
4F#\	2ryy	4a\ 4ddn\	4ddn\
4G#\	.	4b\ 4dd\	4dd\
*	*v	*v	*
=10	=10	=10
(4G#\	4b\ (4dd\	(4dd\
4A\)	&(4a\&) 4cc#\)	4cc#\)
4A\	4a\ 4cc#\	4cc#\
4F#\	4c#/ 4a/	4a/
=11	=11	=11
4D\	4.d/ 4.b/	4.b\
4C#/	.	.
.	8e/ 8cc#/	8cc#\
4BB/	8f#/ 8dd/L	8dd\L
.	8d/ 8b/	8b\J
4E\	8c#/ 8a/	8a/L
.	8B/ 8g#/J	8g#/J
=12	=12	=12
4A\	4c#/ 4a/	4a/
4E\	4r	4r
4AA/	4r	4r
==	==	==
*-	*-	*-
!!!ENC: Craig Stuart Sapp
!!!END: 2004/05/18/
!!!EFL: 007/651
